packages/bezier-icons/icons/note-logo.svg

<svg width="24" height="24" viewBox="0 0 24 24" fill="none" xmlns="http://www.w3.org/2000/svg">
<path fill-rule="evenodd" clip-rule="evenodd" d="M17.7152 18.7149H6.2892L6.2912 8.73291C6.2912 8.63891 6.3272 8.5279 6.3752 8.47591C7.3232 7.42691 8.2952 6.36791 9.2632 5.32691C9.3122 5.27491 9.4072 5.22791 9.4652 5.22791H17.7152V18.7149ZM20.0002 4.08892C20.0002 3.45892 19.4872 2.94592 18.8572 2.94592H8.96621C8.52721 2.94592 8.18521 3.09692 7.89021 3.42192L4.44621 7.17292C4.13921 7.50392 3.99721 7.86692 4.00021 8.31692C4.00321 8.74992 4.00421 19.7349 4.00421 19.8579C4.00421 20.4869 4.51721 20.9999 5.14621 20.9999H18.8572C19.4872 20.9999 20.0002 20.4869 20.0002 19.8579V4.08892ZM7.6604 9.98263C7.6604 10.4866 8.0704 10.8956 8.5744 10.8956H11.0434C11.5474 10.8956 11.9574 10.4866 11.9574 9.98263V7.51163C11.9574 7.00763 11.5474 6.59863 11.0434 6.59863C10.5394 6.59863 10.1294 7.00763 10.1294 7.51163V9.06863H8.5744C8.0704 9.06863 7.6604 9.47863 7.6604 9.98263Z" fill="#313234"/>
</svg>

<svg xmlns="http://www.w3.org/2000/svg" width="24" height="24" fill="none" viewBox="0 0 24 24"><path fill="#313234" fill-rule="evenodd" d="M17.715 18.715H6.29l.002-9.982c0-.094.036-.205.084-.257.948-1.05 1.92-2.108 2.888-3.15a.34.34 0 0 1 .202-.098h8.25zM20 4.089c0-.63-.513-1.143-1.143-1.143h-9.89c-.44 0-.782.15-1.077.476l-3.444 3.75A1.58 1.58 0 0 0 4 8.318c.003.433.004 11.418.004 11.54 0 .63.513 1.143 1.142 1.143h13.711c.63 0 1.143-.513 1.143-1.142zM7.66 9.983c0 .504.41.913.914.913h2.47a.914.914 0 0 0 .913-.913V7.512a.914.914 0 0 0-1.828 0v1.557H8.574a.915.915 0 0 0-.914.914" clip-rule="evenodd"/></svg>
